X: 172
T: Aşkın Fecri Yüceldi
C: Sadettin Kaynak
O: Turkey
F: http://compmusic.upf.edu/node/140
N: beyati--sarki--duyek--askn_fecri--sadettin_kaynak
N: makam= beyati
N: form= sarki
N: usul= duyek = 8/4
M: 8/4
L: 1/16
K: C _2/4B   
Q: 1/4=132
%%MIDI tuningsystem comma53
c4 d4 d4 d4  | e2 fg e2 d2 d2 {f}ed cB c2  | \
w:  Aş kın  fec ri   |  yü *  *  *  *  cel *  *  *  di   | 
z2 d4 a2 g2 f2 e2 d2  | 
w:  müj de ler  *  ol  | 
d2 f2 e2 d2 c2 {d}cB A4  | e2 f6 eg fe f2 z2  | \
w:  sun  *  *  gö nül    |  Ah   | 
d2 e6 df ed e2 z2  | 
w:  ah   | 
c2 d4 a2 g2 f2 e2 d2  | c2 d6 f3/2e/ de d4  | \
w:  ah   |  ah   *  SAZ  | 
z4 A2 B2 c2 d2 c2 B2  | 
w:  Sa na  ba har  | 
c2 {d}cB c2 d2 c2 {e}dc c4  | g2 g4 g2 g4 g4  | \
w:  lar  *  *  *  *  *  gel *  *  *  di   |  *  müj de ler  ol  | 
^3/4fg a4 gf _2/4e3d c4  | 
w:  sun  *  *  gö *  nül    | 
d2 _2/4e6 d3/2^3/4f/ ed d2 z2  | c2 d6 c_2/4e dc c2 z2  | \
w:  Ah   |  ah   | 
B2 c2 B2 c2 B2 c2 d2 c_1/4B  | 
w:  ah   | 
_1/4B^3/4A B6 dc Bc d4  | G2 A4 A2 a8  | \
w:  ah   *  *  SAZ  |  Se nin le  bah  | 
g2 _b2 a2 g2 f3e d2 e2  | d2 c4 d2 c2 BA B2 c2  | 
w:  ti ya *  *  rım   |  be nim  *  sev *  *  *  gi  | 
B2 A8-A2 e4  | d2 c2 B2 A2 A8  | z2 d4 d2 d4 d4  | \
w:  li  yâ  |  rim    |  Is tı rap tan   | 
e2 g2 f2 e2 fe d^c d4  | 
w:  kur *  *  *  tul *  *  *  dum   | 
z2 e4 g2 f2 e2 d2 e2  | d2 {e}d^3/4c =B2 ^c2 d8  | \
w:  es ki  gün *  *  le  |  re  *  *  *  *  ve da    | 
z2 d4 d2 d4 d4  | e2 g2 f2 e2 fe d^c d4  | 
w:  Is tı rap tan   |  kur *  *  *  tul *  *  *  dum   | 
z2 e4 g2 f2 e2 d2 e2  | d2 {e}d^3/4c =B2 ^c2 d8  | \
w:  es ki  gün *  *  le  |  re  *  *  *  *  ve da    | 
z2 d4 d2 d4 d4  | e2 g2 f2 e2 fe d^c d4  | 
w:  Is tı rap tan   |  kur *  *  *  tul *  *  *  dum   | 
z2 A4 B2 c2 {d}cB B2 A2  | A2 {c}BA G2 {A}G^3/4F F8  | \
w:  es ki  gün *  *  le  |  re  *  *  *  *  *  *  ve da    | 
z4 ^3/4f2 f2 f6 d2  | ^3/4f^3/4e f2 gf g2 a4 z4  | 
w:  Ye ni den  ha  |  yat  *  *  bul *  *  dum   | 
z4 a2 =b2 c'3b _1/4b3a  | a2 {c'}ba g2 {a}g^3/4f f6 z2  | z18  | \
w:  ba na  nûr   |  du  *  *  *  sev *  *  *  da    |  | 
^3/4f4g2f2e2f2g2a4  | 
w:  Sen  her  *  *  şey *  den   | 
a2=b2a2g2^3/4f2f3ed4  | ^3/4f4g2^2/4f2e2f2g2a4  | \
w:  gü *  zel *  *  sin   |  bir  ci *  *  hâ *  na   | 
a2=b2a2g2g ^3/4ff6z2  | 
w:  be *  del *  *  *  sin    | 
^3/4f2g2a6g2fge2d2  | e2^2/4f2g2=f2e2d4c2B2  | \
w:  Kal *  bi min  *  *  i  |  çin *  de *  *  sin   | 
^3/4f4f4z2f3ed4  | 
w:  ru hu  ok *  şa  | 
^c2d2e4d2d4z4  | z16  | G2 A4 A2 a8  | g2 _b2 a2 g2 f3e d2 e2  | \
w:  yan  *  el *  sin    |  |  Se nin le  bah  |  ti ya *  *  rım   | 
d2 c4 d2 c2 BA B2 c2  | 
w:  be nim  *  sev *  *  *  gi  | 
B2 A8-A2 e4  | d2 c2 B2 A2 A8  | |


